epam-assets/icon-sources/18/editor-headline.svg

<svg xmlns="http://www.w3.org/2000/svg" width="18" height="18" fill="none" viewBox="0 0 18 18">
  <path fill="#6C6F80" d="M4.5 3.75h2.25v4.5h4.5v-4.5h2.25V15h-2.25v-4.5h-4.5V15H4.5V3.75Z"/>
</svg>

<svg width="18" height="18" viewBox="0 0 18 18" fill="none" xmlns="http://www.w3.org/2000/svg">
<g id="18/editor-headline">
<path id="icon" d="M4.5 3.75H6.75V8.25H11.25V3.75H13.5V15H11.25V10.5H6.75V15H4.5V3.75Z" fill="#6C6F80"/>
</g>
</svg>
